images/3233721.svg

<?xml version="1.0" encoding="UTF-8"?>
<svg xmlns="http://www.w3.org/2000/svg" xmlns:xlink="http://www.w3.org/1999/xlink" width="300pt" height="300pt" viewBox="0 0 300 300" version="1.1">
<defs>
<g>
<symbol overflow="visible" id="glyph0-0">
<path style="stroke:none;" d="M 0.640625 2.296875 L 0.640625 -9.171875 L 7.140625 -9.171875 L 7.140625 2.296875 Z M 1.375 1.578125 L 6.421875 1.578125 L 6.421875 -8.4375 L 1.375 -8.4375 Z M 1.375 1.578125 "/>
</symbol>
<symbol overflow="visible" id="glyph0-1">
<path style="stroke:none;" d="M 1.28125 -9.484375 L 3 -9.484375 L 7.203125 -1.546875 L 7.203125 -9.484375 L 8.453125 -9.484375 L 8.453125 0 L 6.71875 0 L 2.515625 -7.921875 L 2.515625 0 L 1.28125 0 Z M 1.28125 -9.484375 "/>
</symbol>
<symbol overflow="visible" id="glyph0-2">
<path style="stroke:none;" d="M 1.28125 -9.484375 L 2.5625 -9.484375 L 2.5625 -5.59375 L 7.21875 -5.59375 L 7.21875 -9.484375 L 8.5 -9.484375 L 8.5 0 L 7.21875 0 L 7.21875 -4.515625 L 2.5625 -4.515625 L 2.5625 0 L 1.28125 0 Z M 1.28125 -9.484375 "/>
</symbol>
</g>
</defs>
<g id="surface49917">
<rect x="0" y="0" width="300" height="300" style="fill:rgb(100%,100%,100%);fill-opacity:1;stroke:none;"/>
<path style="fill:none;stroke-width:1.2;stroke-linecap:butt;stroke-linejoin:miter;stroke:rgb(0%,0%,0%);stroke-opacity:1;stroke-miterlimit:10;" d="M 60.871094 212.832031 L 62.074219 195.960938 "/>
<path style="fill:none;stroke-width:1.2;stroke-linecap:butt;stroke-linejoin:miter;stroke:rgb(0%,0%,100%);stroke-opacity:1;stroke-miterlimit:10;" d="M 62.074219 195.960938 L 63.273438 179.089844 "/>
<path style="fill:none;stroke-width:1.2;stroke-linecap:butt;stroke-linejoin:miter;stroke:rgb(0%,0%,100%);stroke-opacity:1;stroke-miterlimit:10;" d="M 63.273438 179.089844 L 49.261719 169.613281 "/>
<path style="fill:none;stroke-width:1.2;stroke-linecap:butt;stroke-linejoin:miter;stroke:rgb(0%,0%,0%);stroke-opacity:1;stroke-miterlimit:10;" d="M 49.261719 169.613281 L 35.25 160.140625 "/>
<path style="fill:none;stroke-width:1.2;stroke-linecap:butt;stroke-linejoin:miter;stroke:rgb(0%,0%,100%);stroke-opacity:1;stroke-miterlimit:10;" d="M 63.273438 179.089844 L 78.484375 171.691406 "/>
<path style="fill:none;stroke-width:1.2;stroke-linecap:butt;stroke-linejoin:miter;stroke:rgb(0%,0%,0%);stroke-opacity:1;stroke-miterlimit:10;" d="M 78.484375 171.691406 L 93.695312 164.296875 "/>
<path style=" stroke:none;fill-rule:nonzero;fill:rgb(100%,100%,100%);fill-opacity:1;" d="M 58.273438 171.089844 L 68.273438 171.089844 L 68.273438 187.089844 L 58.273438 187.089844 Z M 58.273438 171.089844 "/>
<g style="fill:rgb(0%,0%,100%);fill-opacity:1;">
  <use xlink:href="#glyph0-1" x="58.273438" y="183.46582"/>
</g>
<path style="fill:none;stroke-width:1.2;stroke-linecap:butt;stroke-linejoin:miter;stroke:rgb(0%,0%,0%);stroke-opacity:1;stroke-miterlimit:10;" d="M 93.695312 164.296875 L 96.09375 130.554688 "/>
<path style="fill:none;stroke-width:1.2;stroke-linecap:butt;stroke-linejoin:miter;stroke:rgb(0%,0%,0%);stroke-opacity:1;stroke-miterlimit:10;" d="M 96.09375 130.554688 L 68.070312 111.605469 "/>
<path style="fill:none;stroke-width:1.2;stroke-linecap:butt;stroke-linejoin:miter;stroke:rgb(0%,0%,0%);stroke-opacity:1;stroke-miterlimit:10;" d="M 97.75 122.066406 L 75.332031 106.90625 "/>
<path style="fill:none;stroke-width:1.2;stroke-linecap:butt;stroke-linejoin:miter;stroke:rgb(0%,0%,0%);stroke-opacity:1;stroke-miterlimit:10;" d="M 126.515625 115.761719 L 96.09375 130.554688 "/>
<path style="fill:none;stroke-width:1.2;stroke-linecap:butt;stroke-linejoin:miter;stroke:rgb(0%,0%,0%);stroke-opacity:1;stroke-miterlimit:10;" d="M 68.070312 111.605469 L 70.46875 77.863281 "/>
<path style="fill:none;stroke-width:1.2;stroke-linecap:butt;stroke-linejoin:miter;stroke:rgb(0%,0%,0%);stroke-opacity:1;stroke-miterlimit:10;" d="M 70.46875 77.863281 L 100.890625 63.070312 "/>
<path style="fill:none;stroke-width:1.2;stroke-linecap:butt;stroke-linejoin:miter;stroke:rgb(0%,0%,0%);stroke-opacity:1;stroke-miterlimit:10;" d="M 76.992188 83.539062 L 101.332031 71.707031 "/>
<path style="fill:none;stroke-width:1.2;stroke-linecap:butt;stroke-linejoin:miter;stroke:rgb(0%,0%,0%);stroke-opacity:1;stroke-miterlimit:10;" d="M 100.890625 63.070312 L 128.914062 82.019531 "/>
<path style="fill:none;stroke-width:1.2;stroke-linecap:butt;stroke-linejoin:miter;stroke:rgb(0%,0%,0%);stroke-opacity:1;stroke-miterlimit:10;" d="M 128.914062 82.019531 L 126.515625 115.761719 "/>
<path style="fill:none;stroke-width:1.2;stroke-linecap:butt;stroke-linejoin:miter;stroke:rgb(0%,0%,0%);stroke-opacity:1;stroke-miterlimit:10;" d="M 120.734375 84.828125 L 118.816406 111.820312 "/>
<path style="fill:none;stroke-width:1.2;stroke-linecap:butt;stroke-linejoin:miter;stroke:rgb(0%,0%,0%);stroke-opacity:1;stroke-miterlimit:10;" d="M 126.515625 115.761719 L 154.535156 134.710938 "/>
<path style="fill:none;stroke-width:1.2;stroke-linecap:butt;stroke-linejoin:miter;stroke:rgb(0%,0%,0%);stroke-opacity:1;stroke-miterlimit:10;" d="M 154.535156 134.710938 L 153.335938 151.582031 "/>
<path style="fill:none;stroke-width:1.2;stroke-linecap:butt;stroke-linejoin:miter;stroke:rgb(0%,0%,100%);stroke-opacity:1;stroke-miterlimit:10;" d="M 153.335938 151.582031 L 152.136719 168.453125 "/>
<path style="fill:none;stroke-width:1.2;stroke-linecap:butt;stroke-linejoin:miter;stroke:rgb(0%,0%,0%);stroke-opacity:1;stroke-miterlimit:10;" d="M 162.234375 138.648438 L 161.277344 152.144531 "/>
<path style="fill:none;stroke-width:1.2;stroke-linecap:butt;stroke-linejoin:miter;stroke:rgb(0%,0%,100%);stroke-opacity:1;stroke-miterlimit:10;" d="M 161.277344 152.144531 L 160.316406 165.640625 "/>
<path style="fill:none;stroke-width:1.2;stroke-linecap:butt;stroke-linejoin:miter;stroke:rgb(0%,0%,100%);stroke-opacity:1;stroke-miterlimit:10;" d="M 184.957031 119.914062 L 169.746094 127.3125 "/>
<path style="fill:none;stroke-width:1.2;stroke-linecap:butt;stroke-linejoin:miter;stroke:rgb(0%,0%,0%);stroke-opacity:1;stroke-miterlimit:10;" d="M 169.746094 127.3125 L 154.535156 134.710938 "/>
<path style="fill:none;stroke-width:1.2;stroke-linecap:butt;stroke-linejoin:miter;stroke:rgb(0%,0%,100%);stroke-opacity:1;stroke-miterlimit:10;" d="M 152.136719 168.453125 L 166.148438 177.925781 "/>
<path style="fill:none;stroke-width:1.2;stroke-linecap:butt;stroke-linejoin:miter;stroke:rgb(0%,0%,0%);stroke-opacity:1;stroke-miterlimit:10;" d="M 166.148438 177.925781 L 180.160156 187.402344 "/>
<path style=" stroke:none;fill-rule:nonzero;fill:rgb(100%,100%,100%);fill-opacity:1;" d="M 147.136719 160.453125 L 157.136719 160.453125 L 157.136719 176.453125 L 147.136719 176.453125 Z M 147.136719 160.453125 "/>
<g style="fill:rgb(0%,0%,100%);fill-opacity:1;">
  <use xlink:href="#glyph0-1" x="147.136719" y="172.829102"/>
</g>
<path style="fill:none;stroke-width:1.2;stroke-linecap:butt;stroke-linejoin:miter;stroke:rgb(0%,0%,0%);stroke-opacity:1;stroke-miterlimit:10;" d="M 180.160156 187.402344 L 177.761719 221.144531 "/>
<path style="fill:none;stroke-width:1.2;stroke-linecap:butt;stroke-linejoin:miter;stroke:rgb(0%,0%,0%);stroke-opacity:1;stroke-miterlimit:10;" d="M 187.859375 191.339844 L 185.941406 218.332031 "/>
<path style="fill:none;stroke-width:1.2;stroke-linecap:butt;stroke-linejoin:miter;stroke:rgb(0%,0%,0%);stroke-opacity:1;stroke-miterlimit:10;" d="M 210.582031 172.609375 L 180.160156 187.402344 "/>
<path style="fill:none;stroke-width:1.2;stroke-linecap:butt;stroke-linejoin:miter;stroke:rgb(0%,0%,0%);stroke-opacity:1;stroke-miterlimit:10;" d="M 177.761719 221.144531 L 205.78125 240.09375 "/>
<path style="fill:none;stroke-width:1.2;stroke-linecap:butt;stroke-linejoin:miter;stroke:rgb(0%,0%,0%);stroke-opacity:1;stroke-miterlimit:10;" d="M 205.78125 240.09375 L 236.203125 225.300781 "/>
<path style="fill:none;stroke-width:1.2;stroke-linecap:butt;stroke-linejoin:miter;stroke:rgb(0%,0%,0%);stroke-opacity:1;stroke-miterlimit:10;" d="M 205.34375 231.453125 L 229.679688 219.621094 "/>
<path style="fill:none;stroke-width:1.2;stroke-linecap:butt;stroke-linejoin:miter;stroke:rgb(0%,0%,0%);stroke-opacity:1;stroke-miterlimit:10;" d="M 236.203125 225.300781 L 238.601562 191.554688 "/>
<path style="fill:none;stroke-width:1.2;stroke-linecap:butt;stroke-linejoin:miter;stroke:rgb(0%,0%,0%);stroke-opacity:1;stroke-miterlimit:10;" d="M 238.601562 191.554688 L 210.582031 172.609375 "/>
<path style="fill:none;stroke-width:1.2;stroke-linecap:butt;stroke-linejoin:miter;stroke:rgb(0%,0%,0%);stroke-opacity:1;stroke-miterlimit:10;" d="M 231.34375 196.253906 L 208.925781 181.097656 "/>
<path style="fill:none;stroke-width:1.2;stroke-linecap:butt;stroke-linejoin:miter;stroke:rgb(0%,0%,0%);stroke-opacity:1;stroke-miterlimit:10;" d="M 210.582031 172.609375 L 212.980469 138.863281 "/>
<path style="fill:none;stroke-width:1.2;stroke-linecap:butt;stroke-linejoin:miter;stroke:rgb(0%,0%,0%);stroke-opacity:1;stroke-miterlimit:10;" d="M 212.980469 138.863281 L 198.96875 129.390625 "/>
<path style="fill:none;stroke-width:1.2;stroke-linecap:butt;stroke-linejoin:miter;stroke:rgb(0%,0%,100%);stroke-opacity:1;stroke-miterlimit:10;" d="M 198.96875 129.390625 L 184.957031 119.914062 "/>
<path style="fill:none;stroke-width:1.2;stroke-linecap:butt;stroke-linejoin:miter;stroke:rgb(0%,0%,0%);stroke-opacity:1;stroke-miterlimit:10;" d="M 205.71875 143.5625 L 194.511719 135.984375 "/>
<path style="fill:none;stroke-width:1.2;stroke-linecap:butt;stroke-linejoin:miter;stroke:rgb(0%,0%,100%);stroke-opacity:1;stroke-miterlimit:10;" d="M 194.511719 135.984375 L 183.300781 128.402344 "/>
<path style="fill:none;stroke-width:1.2;stroke-linecap:butt;stroke-linejoin:miter;stroke:rgb(0%,0%,0%);stroke-opacity:1;stroke-miterlimit:10;" d="M 212.980469 138.863281 L 228.191406 131.46875 "/>
<path style="fill:none;stroke-width:1.2;stroke-linecap:butt;stroke-linejoin:miter;stroke:rgb(0%,0%,100%);stroke-opacity:1;stroke-miterlimit:10;" d="M 228.191406 131.46875 L 243.402344 124.070312 "/>
<path style=" stroke:none;fill-rule:nonzero;fill:rgb(100%,100%,100%);fill-opacity:1;" d="M 179.957031 111.914062 L 189.957031 111.914062 L 189.957031 127.914062 L 179.957031 127.914062 Z M 179.957031 111.914062 "/>
<g style="fill:rgb(0%,0%,100%);fill-opacity:1;">
  <use xlink:href="#glyph0-1" x="179.957031" y="124.290039"/>
</g>
<path style="fill:none;stroke-width:1.2;stroke-linecap:butt;stroke-linejoin:miter;stroke:rgb(0%,0%,100%);stroke-opacity:1;stroke-miterlimit:10;" d="M 243.402344 124.070312 L 244.601562 107.199219 "/>
<path style="fill:none;stroke-width:1.2;stroke-linecap:butt;stroke-linejoin:miter;stroke:rgb(0%,0%,0%);stroke-opacity:1;stroke-miterlimit:10;" d="M 244.601562 107.199219 L 245.800781 90.328125 "/>
<path style=" stroke:none;fill-rule:nonzero;fill:rgb(100%,100%,100%);fill-opacity:1;" d="M 233.402344 116.070312 L 253.402344 116.070312 L 253.402344 132.070312 L 233.402344 132.070312 Z M 233.402344 116.070312 "/>
<g style="fill:rgb(0%,0%,100%);fill-opacity:1;">
  <use xlink:href="#glyph0-1" x="233.402344" y="128.446289"/>
  <use xlink:href="#glyph0-2" x="243.37207" y="128.446289"/>
</g>
<path style="fill:none;stroke-width:1.2;stroke-linecap:butt;stroke-linejoin:miter;stroke:rgb(0%,0%,0%);stroke-opacity:1;stroke-miterlimit:10;" d="M 245.800781 90.328125 L 231.007812 59.90625 "/>
<path style="fill:none;stroke-width:1.2;stroke-linecap:butt;stroke-linejoin:miter;stroke:rgb(0%,0%,0%);stroke-opacity:1;stroke-miterlimit:10;" d="M 264.75 62.308594 L 245.800781 90.328125 "/>
<path style="fill:none;stroke-width:1.2;stroke-linecap:butt;stroke-linejoin:miter;stroke:rgb(0%,0%,0%);stroke-opacity:1;stroke-miterlimit:10;" d="M 231.007812 59.90625 L 264.75 62.308594 "/>
</g>
</svg>

<svg xmlns="http://www.w3.org/2000/svg" xmlns:xlink="http://www.w3.org/1999/xlink" width="300pt" height="300pt" viewBox="0 0 300 300"><defs><symbol overflow="visible"><path d="M.64 2.297v-11.47h6.5v11.47zm.735-.72h5.047V-8.436H1.375zm0 0"/></symbol><symbol overflow="visible" id="a"><path d="M1.28-9.484H3l4.203 7.937v-7.937h1.25V0H6.72L2.515-7.922V0H1.28zm0 0"/></symbol><symbol overflow="visible" id="b"><path d="M1.28-9.484h1.282v3.89H7.22v-3.89H8.5V0H7.22v-4.516H2.562V0H1.28zm0 0"/></symbol></defs><g><path fill="#fff" d="M0 0h300v300H0z"/><path d="M60.87 212.832l1.204-16.87" stroke-width="1.2" stroke="#000" stroke-miterlimit="10" fill="none"/><path d="M62.074 195.96l1.2-16.87M63.273 179.09l-14.01-9.477" stroke-width="1.2" stroke="#00f" stroke-miterlimit="10" fill="none"/><path d="M49.262 169.613L35.25 160.14" stroke-width="1.2" stroke="#000" stroke-miterlimit="10" fill="none"/><path d="M63.273 179.09l15.21-7.4" stroke-width="1.2" stroke="#00f" stroke-miterlimit="10" fill="none"/><path d="M78.484 171.69l15.21-7.393" stroke-width="1.2" stroke="#000" stroke-miterlimit="10" fill="none"/><path d="M58.273 171.09h10v16h-10zm0 0" fill="#fff"/><use xlink:href="#a" x="58.273" y="183.466" fill="#00f"/><path d="M93.695 164.297l2.4-33.742M96.094 130.555l-28.024-18.95M97.75 122.066l-22.418-15.16M126.516 115.762l-30.422 14.793M68.07 111.605l2.4-33.742M70.47 77.863l30.42-14.793M76.992 83.54l24.34-11.833M100.89 63.07l28.024 18.95M128.914 82.02l-2.398 33.742M120.734 84.828l-1.918 26.992M126.516 115.762l28.02 18.95M154.535 134.71l-1.2 16.872" stroke-width="1.2" stroke="#000" stroke-miterlimit="10" fill="none"/><path d="M153.336 151.582l-1.2 16.87" stroke-width="1.2" stroke="#00f" stroke-miterlimit="10" fill="none"/><path d="M162.234 138.648l-.957 13.497" stroke-width="1.2" stroke="#000" stroke-miterlimit="10" fill="none"/><path d="M161.277 152.145l-.96 13.496M184.957 119.914l-15.21 7.398" stroke-width="1.2" stroke="#00f" stroke-miterlimit="10" fill="none"/><path d="M169.746 127.313l-15.21 7.398" stroke-width="1.2" stroke="#000" stroke-miterlimit="10" fill="none"/><path d="M152.137 168.453l14.01 9.473" stroke-width="1.2" stroke="#00f" stroke-miterlimit="10" fill="none"/><path d="M166.148 177.926l14.012 9.476" stroke-width="1.2" stroke="#000" stroke-miterlimit="10" fill="none"/><path d="M147.137 160.453h10v16h-10zm0 0" fill="#fff"/><use xlink:href="#a" x="147.137" y="172.829" fill="#00f"/><path d="M180.16 187.402l-2.398 33.743M187.86 191.34l-1.92 26.992M210.582 172.61L180.16 187.4M177.762 221.145l28.02 18.95M205.78 240.094l30.423-14.793M205.344 231.453l24.336-11.832M236.203 225.3l2.4-33.745M238.602 191.555l-28.02-18.946M231.344 196.254l-22.418-15.156M210.582 172.61l2.398-33.747M212.98 138.863l-14.01-9.472" stroke-width="1.2" stroke="#000" stroke-miterlimit="10" fill="none"/><path d="M198.97 129.39l-14.013-9.476" stroke-width="1.2" stroke="#00f" stroke-miterlimit="10" fill="none"/><path d="M205.72 143.563l-11.208-7.58" stroke-width="1.2" stroke="#000" stroke-miterlimit="10" fill="none"/><path d="M194.512 135.984l-11.21-7.582" stroke-width="1.2" stroke="#00f" stroke-miterlimit="10" fill="none"/><path d="M212.98 138.863l15.21-7.394" stroke-width="1.2" stroke="#000" stroke-miterlimit="10" fill="none"/><path d="M228.19 131.47l15.212-7.4" stroke-width="1.2" stroke="#00f" stroke-miterlimit="10" fill="none"/><path d="M179.957 111.914h10v16h-10zm0 0" fill="#fff"/><use xlink:href="#a" x="179.957" y="124.29" fill="#00f"/><path d="M243.402 124.07l1.2-16.87" stroke-width="1.2" stroke="#00f" stroke-miterlimit="10" fill="none"/><path d="M244.602 107.2l1.2-16.872" stroke-width="1.2" stroke="#000" stroke-miterlimit="10" fill="none"/><path d="M233.402 116.07h20v16h-20zm0 0" fill="#fff"/><g fill="#00f"><use xlink:href="#a" x="233.402" y="128.446"/><use xlink:href="#b" x="243.372" y="128.446"/></g><path d="M245.8 90.328L231.01 59.906M264.75 62.31L245.8 90.327M231.008 59.906l33.742 2.403" stroke-width="1.2" stroke="#000" stroke-miterlimit="10" fill="none"/></g></svg>
